; generated by Slic3r 1.2.9 on 2016-05-04 at 15:31:38

; external perimeters extrusion width = 0.30mm
; perimeters extrusion width = 0.40mm
; infill extrusion width = 0.40mm
; solid infill extrusion width = 0.40mm
; top infill extrusion width = 0.40mm
; support material extrusion width = 0.30mm

M107
M104 S215 ; set temperature
G28 ; home all axes
G1 X-49 Y49 Z5 F5000 ; lift nozzle

M109 S215 ; wait for temperature to be reached
G21 ; set units to millimeters
G90 ; use absolute coordinates
M82 ; use absolute distances for extrusion
G92 E0
G1 E-5.00000 F2400.00000
G92 E0
G1 Z0.500 F6000.000
G1 X-10.012 Y10.012 F6000.000
G1 Z0.150 F6000.000
G1 E5.00000 F2400.00000
G1 X-35.880 Y-15.857 E5.20791 F1080.000
G1 X-37.315 Y-17.854 E5.22188
G1 X-38.038 Y-20.204 E5.23586
G1 X-37.973 Y-22.662 E5.24983
G1 X-37.302 Y-24.644 E5.26173
G1 X-36.910 Y-25.426 E5.26669
G1 X-35.366 Y-27.517 E5.28147
G1 X-34.216 Y-28.616 E5.29051
G1 X-31.757 Y-30.191 E5.30710
G1 X-20.403 Y-34.666 E5.37646
G1 X-18.013 Y-35.052 E5.39022
G1 X3.441 Y-35.049 E5.51214
G1 X3.622 Y-35.049 E5.51317 F1080.000
G1 X5.996 Y-34.668 E5.52684
G1 X9.009 Y-32.818 E5.54693
G1 X32.818 Y-9.009 E5.73828
G1 X34.660 Y-6.022 E5.75823
G1 X35.049 Y-3.622 E5.77205
G1 X35.052 Y18.013 E5.89500
G1 X34.675 Y20.377 E5.90860
G1 X34.460 Y20.958 E5.91212
G1 X30.099 Y31.386 E5.97636
G1 X29.882 Y31.860 E5.97932
G1 X29.284 Y33.053 E5.98691
G1 X27.603 Y35.270 E6.00272
G1 X26.502 Y36.273 E6.01118
G1 X24.440 Y37.612 E6.02516
G1 X22.058 Y38.224 E6.03913
G1 X19.606 Y38.044 E6.05310
G1 X17.339 Y37.091 E6.06708
G1 X16.003 Y36.026 E6.07679
G1 X-9.980 Y10.043 E6.28561
G1 X-9.822 Y9.822 F6000.000
G1 X-35.691 Y-16.047 E6.49352 F1080.000
G1 X-37.094 Y-18.012 E6.50725
G1 X-37.784 Y-20.326 E6.52097
G1 X-37.685 Y-22.739 E6.53469
G1 X-37.063 Y-24.524 E6.54544
G1 X-36.671 Y-25.306 E6.55041
G1 X-35.181 Y-27.323 E6.56466
G1 X-34.031 Y-28.422 E6.57370
G1 X-31.658 Y-29.942 E6.58971
G1 X-20.319 Y-34.412 E6.65898
G1 X-18.013 Y-34.784 E6.67226
G1 X3.441 Y-34.781 E6.79418
G1 X3.622 Y-34.781 E6.79521 F1080.000
G1 X5.913 Y-34.414 E6.80840
G1 X8.820 Y-32.628 E6.82778
G1 X32.628 Y-8.820 E7.01913
G1 X34.405 Y-5.938 E7.03838
G1 X34.781 Y-3.622 E7.05171
G1 X34.784 Y18.013 E7.17466
G1 X34.420 Y20.294 E7.18779
G1 X34.212 Y20.855 E7.19119
G1 X29.852 Y31.282 E7.25542
G1 X29.642 Y31.740 E7.25828
G1 X29.044 Y32.933 E7.26587
G1 X27.423 Y35.072 E7.28112
G1 X26.321 Y36.074 E7.28959
G1 X24.292 Y37.384 E7.30331
G1 X21.948 Y37.964 E7.31703
G1 X19.543 Y37.752 E7.33076
G1 X17.336 Y36.770 E7.34448
G1 X16.192 Y35.836 E7.35288
G1 X-9.790 Y9.854 E7.56170
G1 X-9.633 Y9.633 F6000.000
G1 X-35.502 Y-16.236 E7.76961 F1080.000
G1 X-36.873 Y-18.169 E7.78308
G1 X-37.528 Y-20.447 E7.79655
G1 X-37.395 Y-22.813 E7.81002
G1 X-36.823 Y-24.404 E7.81963
G1 X-36.431 Y-25.186 E7.82460
G1 X-34.996 Y-27.129 E7.83833
G1 X-33.846 Y-28.229 E7.84737
G1 X-31.560 Y-29.693 E7.86279
G1 X-20.235 Y-34.158 E7.93198
G1 X-18.013 Y-34.516 E7.94477
G1 X3.441 Y-34.513 E8.06669
G1 X3.622 Y-34.513 E8.06772 F1080.000
G1 X5.830 Y-34.159 E8.08043
G1 X8.630 Y-32.439 E8.09911
G1 X32.439 Y-8.630 E8.29046
G1 X34.151 Y-5.854 E8.30900
G1 X34.513 Y-3.621 E8.32185
G1 X34.516 Y18.013 E8.44480
G1 X34.166 Y20.211 E8.45745
G1 X33.965 Y20.751 E8.46073
G1 X29.605 Y31.179 E8.52496
G1 X29.403 Y31.620 E8.52772
G1 X28.805 Y32.813 E8.53530
G1 X27.243 Y34.874 E8.55000
G1 X26.141 Y35.876 E8.55846
G1 X24.146 Y37.155 E8.57193
G1 X21.840 Y37.703 E8.58540
G1 X19.483 Y37.458 E8.59887
G1 X17.339 Y36.448 E8.61234
G1 X16.381 Y35.647 E8.61943
G1 X-9.601 Y9.665 E8.82826
G1 X-9.443 Y9.443 F6000.000
G1 X-35.312 Y-16.425 E9.03617 F1080.000
G1 X-36.651 Y-18.326 E9.04938
G1 X-37.272 Y-20.565 E9.06259
G1 X-37.102 Y-22.884 E9.07580
G1 X-36.584 Y-24.284 E9.08428
G1 X-36.192 Y-25.066 E9.08925
G1 X-34.811 Y-26.936 E9.10246
G1 X-33.661 Y-28.035 E9.11151
G1 X-31.461 Y-29.444 E9.12635
G1 X-20.151 Y-33.904 E9.19544
G1 X-18.013 Y-34.248 E9.20775
G1 X3.441 Y-34.245 E9.32967
G1 X3.622 Y-34.245 E9.33070 F1080.000
G1 X5.747 Y-33.905 E9.34293
G1 X8.441 Y-32.249 E9.36090
G1 X32.249 Y-8.441 E9.55225
G1 X33.897 Y-5.769 E9.57009
G1 X34.245 Y-3.621 E9.58246
G1 X34.248 Y18.013 E9.70541
G1 X33.911 Y20.128 E9.71758
G1 X33.718 Y20.648 E9.72073
G1 X29.358 Y31.076 E9.78497
G1 X29.163 Y31.500 E9.78762
G1 X28.565 Y32.693 E9.79520
G1 X27.062 Y34.676 E9.80934
G1 X25.961 Y35.678 E9.81781
G1 X24.000 Y36.926 E9.83102
G1 X21.733 Y37.441 E9.84423
G1 X19.426 Y37.163 E9.85744
G1 X16.571 Y35.458 E9.87634
G1 X-9.412 Y9.475 E10.08516
G1 X-9.254 Y9.254 F6000.000
G1 X-35.123 Y-16.615 E10.29307 F1080.000
G1 X-36.428 Y-18.481 E10.30601
G1 X-37.014 Y-20.683 E10.31896
G1 X-36.808 Y-22.951 E10.33191
G1 X-36.344 Y-24.165 E10.33929
G1 X-35.953 Y-24.946 E10.34425
G1 X-34.626 Y-26.742 E10.35695
G1 X-33.475 Y-27.841 E10.36599
G1 X-31.363 Y-29.195 E10.38024
G1 X-20.067 Y-33.649 E10.44925
G1 X-18.013 Y-33.980 E10.46108
G1 X3.441 Y-33.978 E10.58300
G1 X3.622 Y-33.977 E10.58403 F1080.000
G1 X5.663 Y-33.650 E10.59578
G1 X8.252 Y-32.060 E10.61304
G1 X32.060 Y-8.252 E10.80439
G1 X33.643 Y-5.685 E10.82153
G1 X33.978 Y-3.621 E10.83341
G1 X33.980 Y18.013 E10.95636
G1 X33.657 Y20.044 E10.96805
G1 X33.471 Y20.545 E10.97109
G1 X29.111 Y30.973 E11.03532
G1 X28.326 Y32.573 E11.04545
G1 X26.882 Y34.478 E11.05903
G1 X25.781 Y35.480 E11.06750
G1 X23.855 Y36.696 E11.08044
G1 X21.628 Y37.178 E11.09339
G1 X19.372 Y36.866 E11.10633
G1 X16.760 Y35.268 E11.12373
G1 X-9.222 Y9.286 E11.33256
G1 X-9.065 Y9.065 F6000.000
G1 X-34.933 Y-16.804 E11.54047 F1080.000
G1 X-36.205 Y-18.637 E11.55314
G1 X-36.754 Y-20.798 E11.56582
G1 X-36.105 Y-24.045 E11.58463
G1 X-35.713 Y-24.826 E11.58960
G1 X-34.441 Y-26.549 E11.60177
G1 X-33.290 Y-27.648 E11.61081
G1 X-31.264 Y-28.946 E11.62449
G1 X-19.983 Y-33.395 E11.69341
G1 X-18.013 Y-33.713 E11.70475
G1 X3.441 Y-33.710 E11.82667
G1 X3.621 Y-33.710 E11.82770 F1080.000
G1 X5.580 Y-33.396 E11.83897
G1 X8.062 Y-31.871 E11.85553
G1 X31.871 Y-8.062 E12.04688
G1 X33.389 Y-5.601 E12.06331
G1 X33.710 Y-3.621 E12.07471
G1 X33.713 Y18.013 E12.19766
G1 X33.402 Y19.961 E12.20887
G1 X33.224 Y20.441 E12.21178
G1 X28.864 Y30.869 E12.27601
G1 X28.087 Y32.453 E12.28604
G1 X26.702 Y34.280 E12.29907
G1 X25.600 Y35.282 E12.30753
G1 X23.710 Y36.466 E12.32021
G1 X21.525 Y36.913 E12.33288
G1 X19.322 Y36.567 E12.34556
G1 X16.949 Y35.079 E12.36147
G1 X-9.033 Y9.097 E12.57029
G1 E7.57029 F2400.00000
G92 E0
G1 Z0.650 F6000.000
G1 X19.116 Y-3.657 F6000.000
G1 Z0.150 F6000.000
G1 E5.00000 F2400.00000
G1 X19.999 Y-3.635 E5.00502 F540.000
G1 X20.554 Y-3.665 E5.00818
G1 X22.505 Y-3.667 E5.01926
G1 X23.670 Y-3.635 E5.02589
G1 X24.157 Y-3.665 E5.02866
G1 X26.810 Y-3.666 E5.04374
G1 X27.024 Y-3.449 E5.04547
G1 X27.024 Y17.849 E5.16651
G1 X26.814 Y18.055 E5.16818
G1 X26.147 Y18.029 E5.17197
G1 X25.590 Y18.059 E5.17515
G1 X23.288 Y18.057 E5.18823
G1 X22.508 Y18.030 E5.19266
G1 X22.032 Y17.984 E5.19538
G1 X21.503 Y18.018 E5.19839
G1 X21.061 Y18.018 E5.20091
G1 X20.678 Y17.958 E5.20311
G1 X20.478 Y17.958 E5.20425
G1 X20.026 Y18.031 E5.20685
G1 X19.119 Y18.053 E5.21200
G1 X19.116 Y-3.612 E5.33512
G1 X18.848 Y-3.931 F6000.000
G1 X19.995 Y-3.903 E5.34164 F378.000
G1 X20.546 Y-3.932 E5.34478
G1 X22.508 Y-3.935 E5.35593
G1 X23.665 Y-3.903 E5.36251
G1 X24.148 Y-3.933 E5.36526
G1 X26.923 Y-3.933 E5.38103
G1 X27.292 Y-3.559 E5.38401
G1 X27.292 Y17.961 E5.50631
G1 X26.920 Y18.327 E5.50928
G1 X26.149 Y18.297 E5.51366
G1 X25.597 Y18.327 E5.51681
G1 X23.283 Y18.325 E5.52995
G1 X22.491 Y18.298 E5.53446
G1 X22.028 Y18.252 E5.53710
G1 X21.512 Y18.286 E5.54004
G1 X21.040 Y18.286 E5.54272
G1 X20.657 Y18.226 E5.54493
G1 X20.499 Y18.226 E5.54582
G1 X20.051 Y18.298 E5.54841
G1 X18.851 Y18.327 E5.55522
G1 X18.848 Y-3.886 E5.68147
G1 X19.106 Y-3.777 F6000.000
G1 X26.873 Y-3.280 F6000.000
G1 X26.638 Y-3.515 E5.68337 F1080.000
G1 X26.257 Y-3.515 E5.68555
G1 X26.873 Y-2.899 E5.69055
G1 X26.873 Y-2.517 E5.69273
G1 X25.875 Y-3.515 E5.70082
G1 X25.494 Y-3.515 E5.70300
G1 X26.873 Y-2.135 E5.71418
G1 X26.873 Y-1.753 E5.71636
G1 X25.112 Y-3.515 E5.73063
G1 X24.730 Y-3.515 E5.73281
G1 X26.873 Y-1.372 E5.75017
G1 X26.873 Y-0.990 E5.75236
G1 X24.349 Y-3.515 E5.77280
G1 X23.975 Y-3.506 E5.77494
G1 X26.873 Y-0.608 E5.79841
G1 X26.873 Y-0.227 E5.80060
G1 X23.616 Y-3.484 E5.82698
G1 X23.223 Y-3.495 E5.82923
G1 X26.873 Y0.155 E5.85880
G1 X26.873 Y0.537 E5.86098
G1 X22.831 Y-3.506 E5.89373
G1 X22.438 Y-3.517 E5.89597
G1 X26.873 Y0.918 E5.93189
G1 X26.873 Y1.300 E5.93408
G1 X22.057 Y-3.516 E5.97309
G1 X21.676 Y-3.516 E5.97527
G1 X26.873 Y1.682 E6.01737
G1 X26.873 Y2.063 E6.01955
G1 X21.295 Y-3.515 E6.06473
G1 X20.914 Y-3.514 E6.06692
G1 X26.873 Y2.445 E6.11518
G1 X26.873 Y2.827 E6.11737
G1 X20.533 Y-3.514 E6.16873
G1 X20.169 Y-3.496 E6.17081
G1 X26.873 Y3.208 E6.22511
G1 X26.873 Y3.590 E6.22730
G1 X19.796 Y-3.488 E6.28462
G1 X19.404 Y-3.497 E6.28687
G1 X26.873 Y3.972 E6.34736
G1 X26.873 Y4.353 E6.34955
G1 X19.267 Y-3.253 E6.41116
G1 X19.267 Y-2.871 E6.41334
G1 X26.873 Y4.735 E6.47495
G1 X26.873 Y5.117 E6.47713
G1 X19.267 Y-2.489 E6.53874
G1 X19.267 Y-2.107 E6.54092
G1 X26.873 Y5.498 E6.60253
G1 X26.873 Y5.880 E6.60471
G1 X19.267 Y-1.726 E6.66632
G1 X19.267 Y-1.344 E6.66850
G1 X26.873 Y6.262 E6.73011
G1 X26.873 Y6.643 E6.73229
G1 X19.267 Y-0.962 E6.79390
G1 X19.267 Y-0.581 E6.79608
G1 X26.873 Y7.025 E6.85768
G1 X26.873 Y7.407 E6.85987
G1 X19.268 Y-0.199 E6.92147
G1 X19.268 Y0.183 E6.92366
G1 X26.873 Y7.788 E6.98526
G1 X26.873 Y8.170 E6.98745
G1 X19.268 Y0.565 E7.04905
G1 X19.268 Y0.946 E7.05123
G1 X26.873 Y8.552 E7.11283
G1 X26.873 Y8.933 E7.11502
G1 X19.268 Y1.328 E7.17662
G1 X19.268 Y1.710 E7.17881
G1 X26.873 Y9.315 E7.24041
G1 X26.873 Y9.697 E7.24259
G1 X19.268 Y2.092 E7.30419
G1 X19.268 Y2.473 E7.30638
G1 X26.873 Y10.079 E7.36798
G1 X26.873 Y10.460 E7.37016
G1 X19.268 Y2.855 E7.43176
G1 X19.268 Y3.237 E7.43395
G1 X26.873 Y10.842 E7.49554
G1 X26.873 Y11.224 E7.49773
G1 X19.268 Y3.619 E7.55933
G1 X19.268 Y4.000 E7.56151
G1 X26.873 Y11.605 E7.62311
G1 X26.873 Y11.987 E7.62530
G1 X19.268 Y4.382 E7.68689
G1 X19.268 Y4.764 E7.68908
G1 X26.873 Y12.369 E7.75068
G1 X26.873 Y12.750 E7.75286
G1 X19.268 Y5.145 E7.81446
G1 X19.268 Y5.527 E7.81664
G1 X26.873 Y13.132 E7.87824
G1 X26.873 Y13.514 E7.88042
G1 X19.268 Y5.909 E7.94202
G1 X19.268 Y6.291 E7.94421
G1 X26.873 Y13.895 E8.00580
G1 X26.873 Y14.277 E8.00799
G1 X19.268 Y6.672 E8.06958
G1 X19.268 Y7.054 E8.07177
G1 X26.873 Y14.659 E8.13336
G1 X26.873 Y15.040 E8.13554
G1 X19.269 Y7.436 E8.19714
G1 X19.269 Y7.818 E8.19932
G1 X26.873 Y15.422 E8.26092
G1 X26.873 Y15.804 E8.26310
G1 X19.269 Y8.199 E8.32469
G1 X19.269 Y8.581 E8.32688
G1 X26.873 Y16.185 E8.38847
G1 X26.873 Y16.567 E8.39066
G1 X19.269 Y8.963 E8.45225
G1 X19.269 Y9.345 E8.45444
G1 X26.873 Y16.949 E8.51603
G1 X26.873 Y17.330 E8.51821
G1 X19.269 Y9.726 E8.57980
G1 X19.269 Y10.108 E8.58199
G1 X26.873 Y17.712 E8.64358
G1 X26.676 Y17.896 E8.64512
G1 X19.269 Y10.490 E8.70511
G1 X19.269 Y10.871 E8.70730
G1 X26.278 Y17.881 E8.76407
G1 X25.909 Y17.894 E8.76619
G1 X19.269 Y11.253 E8.81997
G1 X19.269 Y11.635 E8.82216
G1 X25.542 Y17.908 E8.87297
G1 X25.160 Y17.908 E8.87516
G1 X19.269 Y12.017 E8.92287
G1 X19.269 Y12.398 E8.92506
G1 X24.778 Y17.907 E8.96968
G1 X24.396 Y17.907 E8.97187
G1 X19.269 Y12.780 E9.01339
G1 X19.269 Y13.162 E9.01558
G1 X24.014 Y17.907 E9.05401
G1 X23.632 Y17.906 E9.05620
G1 X19.269 Y13.544 E9.09153
G1 X19.269 Y13.925 E9.09372
G1 X23.247 Y17.903 E9.12594
G1 X22.852 Y17.889 E9.12820
G1 X19.269 Y14.307 E9.15721
G1 X19.269 Y14.689 E9.15940
G1 X22.448 Y17.867 E9.18514
G1 X22.035 Y17.836 E9.18751
G1 X19.270 Y15.071 E9.20991
G1 X19.270 Y15.452 E9.21210
G1 X21.677 Y17.859 E9.23160
G1 X21.303 Y17.867 E9.23374
G1 X19.270 Y15.834 E9.25021
G1 X19.270 Y16.216 E9.25239
G1 X20.882 Y17.828 E9.26545
G1 X20.485 Y17.812 E9.26772
G1 X19.270 Y16.598 E9.27756
G1 X19.270 Y16.979 E9.27975
G1 X20.156 Y17.865 E9.28693
G1 X19.796 Y17.887 E9.28899
G1 X19.270 Y17.361 E9.29325
G1 X19.270 Y17.743 E9.29544
G1 X19.423 Y17.896 E9.29668
G1 E4.29668 F2400.00000
G92 E0
G1 Z0.650 F6000.000
G1 X3.667 Y-19.116 F6000.000
G1 Z0.150 F6000.000
G1 E5.00000 F2400.00000
G1 X-18.053 Y-19.119 E5.12344 F540.000
G1 X-18.030 Y-20.072 E5.12885
G1 X-18.060 Y-20.559 E5.13162
G1 X-18.064 Y-22.190 E5.14089
G1 X-18.029 Y-23.603 E5.14893
G1 X-18.059 Y-24.158 E5.15209
G1 X-18.062 Y-26.808 E5.16714
G1 X-17.849 Y-27.024 E5.16887
G1 X3.452 Y-27.024 E5.28992
G1 X3.662 Y-26.812 E5.29162
G1 X3.635 Y-26.144 E5.29542
G1 X3.666 Y-25.586 E5.29859
G1 X3.668 Y-23.635 E5.30968
G1 X3.635 Y-22.471 E5.31630
G1 X3.665 Y-21.984 E5.31907
G1 X3.667 Y-19.161 E5.33511
G1 X3.935 Y-18.848 F6000.000
G1 X-18.327 Y-18.851 E5.46163 F378.000
G1 X-18.298 Y-20.067 E5.46854
G1 X-18.327 Y-20.550 E5.47129
G1 X-18.332 Y-22.193 E5.48063
G1 X-18.297 Y-23.600 E5.48862
G1 X-18.327 Y-24.151 E5.49176
G1 X-18.329 Y-26.917 E5.50749
G1 X-17.961 Y-27.291 E5.51047
G1 X3.567 Y-27.290 E5.63281
G1 X3.934 Y-26.917 E5.63579
G1 X3.904 Y-26.146 E5.64017
G1 X3.933 Y-25.594 E5.64331
G1 X3.935 Y-23.632 E5.65446
G1 X3.903 Y-22.475 E5.66104
G1 X3.933 Y-21.992 E5.66379
G1 X3.935 Y-18.893 E5.68140
G1 X3.675 Y-18.998 F6000.000
G1 X3.507 Y-26.647 F6000.000
G1 X3.280 Y-26.873 E5.68323 F1080.000
G1 X2.899 Y-26.873 E5.68542
G1 X3.492 Y-26.280 E5.69023
G1 X3.495 Y-25.895 E5.69243
G1 X2.517 Y-26.873 E5.70035
G1 X2.135 Y-26.873 E5.70253
G1 X3.515 Y-25.494 E5.71371
G1 X3.515 Y-25.112 E5.71590
G1 X1.754 Y-26.873 E5.73016
G1 X1.372 Y-26.873 E5.73235
G1 X3.516 Y-24.730 E5.74971
G1 X3.516 Y-24.347 E5.75190
G1 X0.990 Y-26.873 E5.77236
G1 X0.609 Y-26.873 E5.77455
G1 X3.516 Y-23.965 E5.79810
G1 X3.517 Y-23.583 E5.80029
G1 X0.227 Y-26.873 E5.82693
G1 X-0.155 Y-26.873 E5.82912
G1 X3.506 Y-23.212 E5.85878
G1 X3.496 Y-22.841 E5.86090
G1 X-0.537 Y-26.873 E5.89357
G1 X-0.918 Y-26.873 E5.89575
G1 X3.486 Y-22.469 E5.93142
G1 X3.505 Y-22.068 E5.93372
G1 X-1.300 Y-26.873 E5.97264
G1 X-1.682 Y-26.873 E5.97482
G1 X3.514 Y-21.677 E6.01691
G1 X3.515 Y-21.295 E6.01910
G1 X-2.063 Y-26.873 E6.06427
G1 X-2.445 Y-26.873 E6.06646
G1 X3.515 Y-20.913 E6.11473
G1 X3.515 Y-20.531 E6.11692
G1 X-2.827 Y-26.873 E6.16829
G1 X-3.208 Y-26.873 E6.17047
G1 X3.515 Y-20.149 E6.22493
G1 X3.516 Y-19.767 E6.22712
G1 X-3.590 Y-26.873 E6.28467
G1 X-3.972 Y-26.873 E6.28686
G1 X3.516 Y-19.385 E6.34751
G1 X3.253 Y-19.267 E6.34916
G1 X-4.353 Y-26.873 E6.41077
G1 X-4.735 Y-26.873 E6.41295
G1 X2.871 Y-19.267 E6.47456
G1 X2.489 Y-19.267 E6.47674
G1 X-5.117 Y-26.873 E6.53835
G1 X-5.498 Y-26.873 E6.54054
G1 X2.107 Y-19.267 E6.60214
G1 X1.726 Y-19.267 E6.60433
G1 X-5.880 Y-26.873 E6.66593
G1 X-6.262 Y-26.873 E6.66812
G1 X1.344 Y-19.267 E6.72972
G1 X0.962 Y-19.267 E6.73191
G1 X-6.643 Y-26.873 E6.79351
G1 X-7.025 Y-26.873 E6.79570
G1 X0.581 Y-19.267 E6.85730
G1 X0.199 Y-19.268 E6.85948
G1 X-7.407 Y-26.873 E6.92109
G1 X-7.788 Y-26.873 E6.92327
G1 X-0.183 Y-19.268 E6.98487
G1 X-0.565 Y-19.268 E6.98706
G1 X-8.170 Y-26.873 E7.04866
G1 X-8.552 Y-26.873 E7.05085
G1 X-0.946 Y-19.268 E7.11245
G1 X-1.328 Y-19.268 E7.11463
G1 X-8.933 Y-26.873 E7.17623
G1 X-9.315 Y-26.873 E7.17842
G1 X-1.710 Y-19.268 E7.24002
G1 X-2.092 Y-19.268 E7.24221
G1 X-9.697 Y-26.873 E7.30381
G1 X-10.078 Y-26.873 E7.30599
G1 X-2.473 Y-19.268 E7.36759
G1 X-2.855 Y-19.268 E7.36978
G1 X-10.460 Y-26.873 E7.43138
G1 X-10.842 Y-26.873 E7.43356
G1 X-3.237 Y-19.268 E7.49516
G1 X-3.619 Y-19.268 E7.49735
G1 X-11.224 Y-26.873 E7.55894
G1 X-11.605 Y-26.873 E7.56113
G1 X-4.000 Y-19.268 E7.62273
G1 X-4.382 Y-19.268 E7.62491
G1 X-11.987 Y-26.873 E7.68651
G1 X-12.369 Y-26.873 E7.68869
