; generated by Slic3r 1.2.9 on 2016-05-11 at 13:29:01

; external perimeters extrusion width = 0.30mm
; perimeters extrusion width = 0.40mm
; infill extrusion width = 0.40mm
; solid infill extrusion width = 0.40mm
; top infill extrusion width = 0.40mm
; support material extrusion width = 0.30mm

M107
M104 S215 ; set temperature
G28 ; home all axes
G1 Z5 F5000 ; lift nozzle

M109 S215 ; wait for temperature to be reached
G21 ; set units to millimeters
G90 ; use absolute coordinates
M82 ; use absolute distances for extrusion
G92 E0
G1 E-1.00000 F1800.00000
G92 E0
G1 Z0.100 F6000.000
G1 X62.288 Y71.085 F6000.000
G1 E1.00000 F1800.00000
G1 X64.350 Y69.547 E1.00650 F1080.000
G1 X65.801 Y68.949 E1.01046
G1 X79.555 Y64.747 E1.04679
G1 X81.987 Y64.384 E1.05300
G1 X88.849 Y64.385 E1.07033
G1 X103.622 Y64.387 E1.10764 F1080.000
G1 X106.163 Y64.785 E1.11414
G1 X108.461 Y65.940 E1.12064
G1 X109.504 Y66.824 E1.12409
G1 X133.176 Y90.496 E1.20865
G1 X134.691 Y92.574 E1.21514
G1 X135.500 Y95.016 E1.22164
G1 X135.613 Y96.378 E1.22509
G1 X135.616 Y118.013 E1.27974
G1 X135.243 Y120.474 E1.28603
G1 X131.018 Y134.124 E1.32212
G1 X130.508 Y135.391 E1.32557
G1 X130.313 Y135.781 E1.32667
G1 X128.818 Y137.875 E1.33317
G1 X126.756 Y139.413 E1.33966
G1 X124.323 Y140.247 E1.34616
G1 X121.751 Y140.298 E1.35266
G1 X119.286 Y139.561 E1.35916
G1 X116.990 Y137.937 E1.36626
G1 X62.180 Y83.127 E1.56204
G1 X60.664 Y81.049 E1.56854
G1 X59.855 Y78.607 E1.57504
G1 X59.831 Y76.035 E1.58154
G1 X60.625 Y73.515 E1.58821
G1 X60.793 Y73.179 E1.58916
G1 X62.262 Y71.121 E1.59554
G1 X62.435 Y71.190 F6000.000
G1 X64.482 Y69.680 E1.60197 F1080.000
G1 X65.854 Y69.120 E1.60571
G1 X79.608 Y64.918 E1.64204
G1 X81.987 Y64.563 E1.64811
G1 X88.849 Y64.564 E1.66544
G1 X103.622 Y64.566 E1.70276 F1080.000
G1 X106.135 Y64.964 E1.70918
G1 X108.402 Y66.118 E1.71561
G1 X109.378 Y66.951 E1.71885
G1 X133.049 Y90.622 E1.80341
G1 X134.545 Y92.680 E1.80983
G1 X135.333 Y95.099 E1.81626
G1 X135.434 Y96.378 E1.81950
G1 X135.437 Y118.013 E1.87414
G1 X135.073 Y120.422 E1.88030
G1 X130.847 Y134.071 E1.91639
G1 X130.348 Y135.311 E1.91976
G1 X130.153 Y135.701 E1.92087
G1 X128.671 Y137.770 E1.92729
G1 X126.624 Y139.280 E1.93372
G1 X124.210 Y140.085 E1.94015
G1 X121.666 Y140.105 E1.94657
G1 X119.239 Y139.339 E1.95300
G1 X117.116 Y137.811 E1.95961
G1 X62.306 Y83.001 E2.15539
G1 X60.810 Y80.943 E2.16182
G1 X60.023 Y78.523 E2.16825
G1 X60.020 Y75.979 E2.17467
G1 X60.785 Y73.595 E2.18100
G1 X60.953 Y73.259 E2.18195
G1 X62.408 Y71.227 E2.18826
G1 X62.581 Y71.296 F6000.000
G1 X64.614 Y69.813 E2.19461 F1080.000
G1 X65.906 Y69.291 E2.19813
G1 X79.660 Y65.089 E2.23446
G1 X81.987 Y64.742 E2.24040
G1 X88.849 Y64.742 E2.25773
G1 X103.622 Y64.744 E2.29505 F1080.000
G1 X106.106 Y65.142 E2.30140
G1 X109.252 Y67.077 E2.31073
G1 X132.923 Y90.748 E2.39528
G1 X134.399 Y92.786 E2.40164
G1 X135.256 Y96.378 E2.41097
G1 X135.259 Y118.013 E2.46561
G1 X134.902 Y120.369 E2.47163
G1 X130.677 Y134.018 E2.50772
G1 X130.189 Y135.231 E2.51102
G1 X129.993 Y135.621 E2.51213
G1 X128.525 Y137.664 E2.51848
G1 X126.492 Y139.147 E2.52484
G1 X124.098 Y139.922 E2.53119
G1 X121.582 Y139.911 E2.53755
G1 X119.195 Y139.116 E2.54390
G1 X117.242 Y137.684 E2.55002
G1 X62.433 Y82.875 E2.74580
G1 X60.957 Y80.837 E2.75216
G1 X60.190 Y78.440 E2.75851
G1 X60.210 Y75.924 E2.76487
G1 X60.944 Y73.675 E2.77084
G1 X61.113 Y73.339 E2.77179
G1 X62.555 Y71.332 E2.77804
G1 X62.728 Y71.401 F6000.000
G1 X64.746 Y69.946 E2.78432 F1080.000
G1 X65.958 Y69.461 E2.78762
G1 X79.712 Y65.260 E2.82394
G1 X81.987 Y64.920 E2.82975
G1 X88.849 Y64.921 E2.84708
G1 X103.622 Y64.923 E2.88440 F1080.000
G1 X106.077 Y65.321 E2.89068
G1 X109.126 Y67.203 E2.89973
G1 X132.797 Y90.874 E2.98429
G1 X134.252 Y92.892 E2.99057
G1 X135.077 Y96.378 E2.99962
G1 X135.080 Y118.013 E3.05426
G1 X134.732 Y120.316 E3.06015
G1 X130.506 Y133.965 E3.09624
G1 X130.029 Y135.151 E3.09947
G1 X129.834 Y135.541 E3.10057
G1 X128.378 Y137.559 E3.10685
G1 X126.360 Y139.014 E3.11313
G1 X123.987 Y139.758 E3.11942
G1 X121.500 Y139.716 E3.12570
G1 X119.153 Y138.892 E3.13198
G1 X117.368 Y137.558 E3.13761
G1 X62.559 Y82.748 E3.33339
G1 X61.103 Y80.731 E3.33968
G1 X60.359 Y78.357 E3.34596
G1 X60.401 Y75.870 E3.35224
G1 X61.104 Y73.755 E3.35787
G1 X61.272 Y73.419 E3.35882
G1 X62.702 Y71.438 E3.36499
G1 X62.874 Y71.507 F6000.000
G1 X66.010 Y69.632 E3.37422 F1080.000
G1 X79.764 Y65.430 E3.41055
G1 X81.987 Y65.099 E3.41622
G1 X88.849 Y65.099 E3.43356
G1 X103.622 Y65.101 E3.47087 F1080.000
G1 X106.048 Y65.499 E3.47708
G1 X108.999 Y67.329 E3.48585
G1 X132.671 Y91.001 E3.57041
G1 X134.105 Y92.997 E3.57662
G1 X134.899 Y96.378 E3.58539
G1 X134.901 Y118.013 E3.64003
G1 X134.561 Y120.263 E3.64578
G1 X130.336 Y133.912 E3.68187
G1 X129.870 Y135.071 E3.68503
G1 X129.674 Y135.461 E3.68613
G1 X128.232 Y137.453 E3.69234
G1 X126.229 Y138.880 E3.69855
G1 X123.876 Y139.593 E3.70476
G1 X121.419 Y139.519 E3.71097
G1 X119.113 Y138.665 E3.71718
G1 X117.495 Y137.432 E3.72232
G1 X62.685 Y82.622 E3.91810
G1 X61.250 Y80.625 E3.92431
G1 X60.527 Y78.275 E3.93052
G1 X60.592 Y75.817 E3.93673
G1 X61.263 Y73.835 E3.94202
G1 X61.432 Y73.499 E3.94297
G1 X62.848 Y71.544 E3.94907
G1 X63.021 Y71.614 F6000.000
G1 X66.062 Y69.803 E3.95801 F1080.000
G1 X79.816 Y65.601 E3.99433
G1 X81.987 Y65.277 E3.99988
G1 X88.849 Y65.278 E4.01721
G1 X103.622 Y65.280 E4.05452 F1080.000
G1 X106.018 Y65.678 E4.06066
G1 X108.873 Y67.456 E4.06915
G1 X132.544 Y91.127 E4.15371
G1 X133.958 Y93.103 E4.15985
G1 X134.720 Y96.378 E4.16834
G1 X134.723 Y118.013 E4.22298
G1 X134.391 Y120.210 E4.22860
G1 X130.165 Y133.860 E4.26469
G1 X129.710 Y134.991 E4.26777
G1 X129.514 Y135.381 E4.26887
G1 X128.085 Y137.346 E4.27501
G1 X126.099 Y138.745 E4.28114
G1 X123.767 Y139.427 E4.28728
G1 X121.340 Y139.321 E4.29342
G1 X119.077 Y138.438 E4.29955
G1 X117.621 Y137.306 E4.30421
G1 X62.811 Y82.496 E4.50000
G1 X61.397 Y80.520 E4.50613
G1 X60.697 Y78.194 E4.51227
G1 X60.784 Y75.766 E4.51840
G1 X61.423 Y73.915 E4.52335
G1 X61.592 Y73.579 E4.52430
G1 X62.994 Y71.650 E4.53032
G1 X63.167 Y71.721 F6000.000
G1 X66.114 Y69.974 E4.53898 F1080.000
G1 X79.868 Y65.772 E4.57530
G1 X81.987 Y65.456 E4.58071
G1 X88.849 Y65.457 E4.59805
G1 X103.622 Y65.458 E4.63536 F1080.000
G1 X105.988 Y65.856 E4.64142
G1 X108.747 Y67.582 E4.64964
G1 X132.418 Y91.253 E4.73419
G1 X133.811 Y93.208 E4.74026
G1 X134.542 Y96.379 E4.74848
G1 X134.544 Y118.013 E4.80312
G1 X134.220 Y120.158 E4.80860
G1 X129.995 Y133.807 E4.84469
G1 X129.550 Y134.911 E4.84770
G1 X129.355 Y135.301 E4.84880
G1 X127.939 Y137.239 E4.85486
G1 X125.968 Y138.609 E4.86092
G1 X123.658 Y139.260 E4.86698
G1 X121.263 Y139.121 E4.87304
G1 X119.043 Y138.208 E4.87911
G1 X117.747 Y137.179 E4.88329
G1 X62.937 Y82.370 E5.07907
G1 X61.545 Y80.415 E5.08513
G1 X60.866 Y78.113 E5.09119
G1 X60.977 Y75.716 E5.09725
G1 X61.583 Y73.995 E5.10186
G1 X61.751 Y73.659 E5.10281
G1 X63.140 Y71.757 E5.10876
G1 X63.313 Y71.828 F6000.000
G1 X66.167 Y70.144 E5.11713 F1080.000
G1 X79.920 Y65.943 E5.15345
G1 X81.987 Y65.634 E5.15873
G1 X88.849 Y65.635 E5.17606
G1 X103.622 Y65.637 E5.21338 F1080.000
G1 X105.958 Y66.035 E5.21936
G1 X108.621 Y67.708 E5.22731
G1 X132.292 Y91.379 E5.31186
G1 X133.663 Y93.312 E5.31785
G1 X134.363 Y96.379 E5.32579
G1 X134.366 Y118.013 E5.38044
G1 X134.050 Y120.105 E5.38578
G1 X129.824 Y133.754 E5.42187
G1 X129.391 Y134.831 E5.42480
G1 X129.195 Y135.221 E5.42590
G1 X127.793 Y137.132 E5.43189
G1 X125.839 Y138.473 E5.43788
G1 X123.551 Y139.092 E5.44386
G1 X121.187 Y138.920 E5.44985
G1 X119.013 Y137.977 E5.45584
G1 X117.873 Y137.053 E5.45954
G1 X63.064 Y82.243 E5.65532
G1 X61.692 Y80.310 E5.66131
G1 X61.037 Y78.033 E5.66730
G1 X61.171 Y75.667 E5.67328
G1 X61.742 Y74.075 E5.67755
G1 X61.911 Y73.739 E5.67850
G1 X63.286 Y71.864 E5.68438
G1 X63.459 Y71.935 F6000.000
G1 X66.219 Y70.315 E5.69246 F1080.000
G1 X79.973 Y66.113 E5.72879
G1 X81.987 Y65.813 E5.73393
G1 X88.849 Y65.814 E5.75126
G1 X103.621 Y65.816 E5.78857 F1080.000
G1 X105.927 Y66.213 E5.79448
G1 X108.494 Y67.834 E5.80215
G1 X132.166 Y91.506 E5.88671
G1 X133.515 Y93.417 E5.89262
G1 X134.184 Y96.379 E5.90029
G1 X134.187 Y118.013 E5.95493
G1 X133.879 Y120.052 E5.96014
G1 X129.653 Y133.701 E5.99623
G1 X129.231 Y134.751 E5.99909
G1 X129.036 Y135.141 E6.00019
G1 X127.647 Y137.025 E6.00610
G1 X125.709 Y138.335 E6.01201
G1 X123.444 Y138.922 E6.01792
G1 X121.114 Y138.717 E6.02383
G1 X118.986 Y137.744 E6.02974
G1 X118.000 Y136.927 E6.03298
G1 X63.190 Y82.117 E6.22876
G1 X61.840 Y80.206 E6.23467
G1 X61.208 Y77.953 E6.24058
G1 X61.365 Y75.619 E6.24649
G1 X61.902 Y74.155 E6.25043
G1 X62.070 Y73.819 E6.25138
G1 X63.432 Y71.971 E6.25717
G1 X63.604 Y72.043 F6000.000
G1 X66.271 Y70.486 E6.26497 F1080.000
G1 X80.025 Y66.284 E6.30130
G1 X81.987 Y65.991 E6.30631
G1 X88.849 Y65.992 E6.32364
G1 X103.621 Y65.994 E6.36095 F1080.000
G1 X105.896 Y66.391 E6.36678
G1 X108.368 Y67.961 E6.37418
G1 X132.039 Y91.632 E6.45874
G1 X133.367 Y93.521 E6.46457
G1 X134.006 Y96.379 E6.47196
G1 X134.009 Y118.013 E6.52661
G1 X133.708 Y119.999 E6.53168
G1 X129.483 Y133.648 E6.56777
G1 X129.072 Y134.671 E6.57056
G1 X128.876 Y135.061 E6.57166
G1 X127.502 Y136.917 E6.57749
G1 X125.580 Y138.197 E6.58332
G1 X123.339 Y138.751 E6.58915
G1 X121.042 Y138.513 E6.59499
G1 X118.126 Y136.801 E6.60353
G1 X63.316 Y81.991 E6.79931
G1 X61.989 Y80.102 E6.80514
G1 X61.380 Y77.875 E6.81098
G1 X61.561 Y75.573 E6.81681
G1 X62.061 Y74.235 E6.82042
G1 X62.230 Y73.899 E6.82137
G1 X63.577 Y72.079 E6.82708
G1 X63.750 Y72.151 F6000.000
G1 X66.323 Y70.657 E6.83460 F1080.000
G1 X80.077 Y66.455 E6.87093
G1 X81.987 Y66.170 E6.87580
G1 X88.849 Y66.171 E6.89314
G1 X103.621 Y66.173 E6.93045 F1080.000
G1 X105.864 Y66.570 E6.93620
G1 X108.242 Y68.087 E6.94333
G1 X131.913 Y91.758 E7.02788
G1 X133.218 Y93.625 E7.03363
G1 X133.827 Y96.379 E7.04076
G1 X133.830 Y118.013 E7.09540
G1 X133.538 Y119.946 E7.10034
G1 X129.312 Y133.596 E7.13643
G1 X128.912 Y134.591 E7.13914
G1 X128.716 Y134.981 E7.14024
G1 X127.357 Y136.809 E7.14600
G1 X125.452 Y138.058 E7.15175
G1 X123.234 Y138.579 E7.15750
G1 X120.973 Y138.306 E7.16326
G1 X118.252 Y136.674 E7.17127
G1 X63.442 Y81.865 E7.36705
G1 X62.137 Y79.998 E7.37281
G1 X61.552 Y77.797 E7.37856
G1 X61.757 Y75.528 E7.38431
G1 X62.221 Y74.315 E7.38759
G1 X62.390 Y73.979 E7.38854
G1 X63.723 Y72.187 E7.39418
G1 X63.895 Y72.260 F6000.000
G1 X66.375 Y70.827 E7.40142 F1080.000
G1 X80.129 Y66.626 E7.43774
G1 X81.987 Y66.348 E7.44249
G1 X88.849 Y66.349 E7.45982
G1 X103.621 Y66.351 E7.49713 F1080.000
G1 X105.832 Y66.748 E7.50281
G1 X108.116 Y68.213 E7.50966
G1 X131.787 Y91.884 E7.59421
G1 X133.070 Y93.728 E7.59989
G1 X133.649 Y96.379 E7.60674
G1 X133.652 Y118.013 E7.66138
G1 X133.367 Y119.894 E7.66619
G1 X129.142 Y133.543 E7.70228
G1 X128.752 Y134.511 E7.70491
G1 X128.557 Y134.901 E7.70602
G1 X127.211 Y136.700 E7.71169
G1 X125.324 Y137.919 E7.71736
G1 X123.131 Y138.405 E7.72304
G1 X120.906 Y138.098 E7.72871
G1 X118.378 Y136.548 E7.73620
G1 X63.569 Y81.738 E7.93198
G1 X62.286 Y79.894 E7.93766
G1 X61.725 Y77.719 E7.94333
G1 X61.955 Y75.485 E7.94900
G1 X62.381 Y74.395 E7.95196
G1 X62.549 Y74.059 E7.95291
G1 X63.868 Y72.296 E7.95847
G1 X64.040 Y72.369 F6000.000
G1 X66.427 Y70.998 E7.96542 F1080.000
G1 X80.181 Y66.796 E8.00175
G1 X81.987 Y66.527 E8.00636
G1 X88.849 Y66.528 E8.02369
G1 X103.621 Y66.530 E8.06101 F1080.000
G1 X105.800 Y66.927 E8.06660
G1 X107.989 Y68.339 E8.07318
G1 X131.661 Y92.011 E8.15773
G1 X132.920 Y93.831 E8.16333
G1 X133.470 Y96.379 E8.16991
G1 X133.473 Y118.013 E8.22455
G1 X133.197 Y119.841 E8.22922
G1 X128.971 Y133.490 E8.26531
G1 X128.593 Y134.431 E8.26788
G1 X128.397 Y134.821 E8.26898
G1 X127.066 Y136.591 E8.27457
G1 X125.197 Y137.778 E8.28016
G1 X123.029 Y138.230 E8.28576
G1 X120.842 Y137.888 E8.29135
G1 X118.505 Y136.422 E8.29832
G1 X63.695 Y81.612 E8.49410
G1 X62.435 Y79.791 E8.49969
G1 X61.898 Y77.643 E8.50529
G1 X62.540 Y74.475 E8.51345
G1 X62.709 Y74.139 E8.51440
G1 X64.013 Y72.405 E8.51988
G1 E7.51988 F1800.00000
G92 E0
G1 X127.016 Y117.898 F6000.000
G1 E1.00000 F1800.00000
G1 X126.867 Y118.048 E1.00053 F540.000
G1 X125.973 Y118.024 E1.00279
G1 X125.648 Y118.044 E1.00361
G1 X123.565 Y118.052 E1.00888
G1 X122.394 Y118.025 E1.01183
G1 X122.084 Y117.994 E1.01262
G1 X121.029 Y118.016 E1.01529
G1 X120.776 Y117.977 E1.01593
G1 X120.443 Y117.977 E1.01677
G1 X120.143 Y118.025 E1.01754
G1 X119.130 Y118.046 E1.02010
G1 X119.127 Y96.352 E1.07490
G1 X119.714 Y96.370 E1.07638
G1 X122.390 Y96.342 E1.08314
G1 X123.318 Y96.370 E1.08548
G1 X124.091 Y96.350 E1.08744
G1 X126.861 Y96.343 E1.09443
G1 X127.013 Y96.495 E1.09498
G1 X127.016 Y117.853 E1.14893
G1 X118.951 Y118.228 F6000.000
G1 X118.948 Y96.168 E1.20465 F378.000
G1 X119.716 Y96.192 E1.20659
G1 X122.392 Y96.164 E1.21335
G1 X123.318 Y96.191 E1.21569
G1 X124.088 Y96.171 E1.21763
G1 X126.935 Y96.164 E1.22482
G1 X127.192 Y96.421 E1.22574
G1 X127.195 Y117.972 E1.28017
G1 X126.939 Y118.228 E1.28109
G1 X125.977 Y118.203 E1.28352
G1 X125.654 Y118.223 E1.28434
G1 X123.563 Y118.231 E1.28962
G1 X122.383 Y118.203 E1.29260
G1 X122.078 Y118.173 E1.29337
G1 X121.017 Y118.195 E1.29605
G1 X120.762 Y118.155 E1.29670
G1 X120.458 Y118.155 E1.29747
G1 X120.159 Y118.204 E1.29824
G1 X118.996 Y118.228 E1.30118
G1 X119.100 Y117.968 F6000.000
G1 X119.224 Y117.834 F6000.000
G1 X119.339 Y117.949 E1.30159 F1080.000
G1 X119.587 Y117.944 E1.30222
G1 X119.224 Y117.580 E1.30352
G1 X119.224 Y117.326 E1.30417
G1 X119.836 Y117.938 E1.30637
G1 X120.084 Y117.933 E1.30700
G1 X119.224 Y117.073 E1.31008
G1 X119.224 Y116.819 E1.31073
G1 X120.313 Y117.908 E1.31464
G1 X120.541 Y117.883 E1.31522
G1 X119.224 Y116.565 E1.31995
G1 X119.224 Y116.312 E1.32059
G1 X120.795 Y117.883 E1.32623
G1 X121.088 Y117.922 E1.32698
G1 X119.223 Y116.058 E1.33367
G1 X119.223 Y115.804 E1.33431
G1 X121.336 Y117.917 E1.34189
G1 X121.585 Y117.912 E1.34252
G1 X119.223 Y115.551 E1.35099
G1 X119.223 Y115.297 E1.35164
G1 X121.833 Y117.907 E1.36100
G1 X122.082 Y117.901 E1.36163
G1 X119.223 Y115.043 E1.37189
G1 X119.223 Y114.790 E1.37253
G1 X122.357 Y117.923 E1.38377
G1 X122.623 Y117.935 E1.38445
G1 X119.223 Y114.536 E1.39665
G1 X119.223 Y114.282 E1.39729
G1 X122.882 Y117.941 E1.41042
G1 X123.142 Y117.947 E1.41108
G1 X119.223 Y114.029 E1.42514
G1 X119.223 Y113.775 E1.42578
G1 X123.402 Y117.953 E1.44078
G1 X123.660 Y117.958 E1.44143
G1 X119.223 Y113.521 E1.45735
G1 X119.223 Y113.268 E1.45799
G1 X123.912 Y117.957 E1.47482
G1 X124.165 Y117.956 E1.47546
G1 X119.223 Y113.014 E1.49319
G1 X119.223 Y112.760 E1.49384
G1 X124.418 Y117.955 E1.51248
G1 X124.670 Y117.954 E1.51312
G1 X119.223 Y112.507 E1.53266
G1 X119.223 Y112.253 E1.53331
G1 X124.923 Y117.953 E1.55376
G1 X125.176 Y117.952 E1.55440
G1 X119.223 Y111.999 E1.57576
G1 X119.223 Y111.746 E1.57640
G1 X125.428 Y117.951 E1.59867
G1 X125.681 Y117.950 E1.59931
G1 X119.223 Y111.492 E1.62248
G1 X119.223 Y111.238 E1.62312
G1 X125.920 Y117.935 E1.64715
G1 X126.172 Y117.934 E1.64779
G1 X119.223 Y110.985 E1.67273
G1 X119.223 Y110.731 E1.67337
G1 X126.433 Y117.941 E1.69925
G1 X126.694 Y117.948 E1.69991
G1 X119.223 Y110.477 E1.72671
G1 X119.223 Y110.224 E1.72736
G1 X126.887 Y117.888 E1.75486
G1 X126.922 Y117.669 E1.75542
G1 X119.223 Y109.970 E1.78305
G1 X119.223 Y109.716 E1.78369
G1 X126.922 Y117.416 E1.81132
G1 X126.922 Y117.162 E1.81196
G1 X119.223 Y109.463 E1.83959
G1 X119.223 Y109.209 E1.84023
G1 X126.922 Y116.909 E1.86786
G1 X126.922 Y116.655 E1.86850
G1 X119.223 Y108.955 E1.89613
G1 X119.223 Y108.702 E1.89677
G1 X126.922 Y116.401 E1.92440
G1 X126.922 Y116.148 E1.92504
G1 X119.222 Y108.448 E1.95267
