; generated by Slic3r 1.2.9 on 2016-05-11 at 00:25:32

; external perimeters extrusion width = 0.30mm
; perimeters extrusion width = 0.40mm
; infill extrusion width = 0.40mm
; solid infill extrusion width = 0.40mm
; top infill extrusion width = 0.40mm

M107
M104 S215 ; set temperature
G28 ; home all axes
G1 Z5 F5000 ; lift nozzle

M109 S215 ; wait for temperature to be reached
G21 ; set units to millimeters
G90 ; use absolute coordinates
M82 ; use absolute distances for extrusion
G92 E0
G1 E-1.00000 F1800.00000
G92 E0
G1 Z0.150 F6000.000
G1 X56.870 Y50.838 F6000.000
G1 E1.00000 F1800.00000
G1 X58.638 Y49.260 E1.01347 F1080.000
G1 X60.828 Y48.354 E1.02694
G1 X62.397 Y48.178 E1.03591
G1 X137.603 Y48.178 E1.46331
G1 X139.939 Y48.575 E1.47678
G1 X142.013 Y49.722 E1.49025 F1080.000
G1 X143.592 Y51.489 E1.50372
G1 X144.498 Y53.680 E1.51719
G1 X144.674 Y55.249 E1.52616
G1 X144.674 Y144.751 E2.03481
G1 X144.277 Y147.088 E2.04828
G1 X143.130 Y149.162 E2.06175
G1 X141.362 Y150.740 E2.07522
G1 X139.172 Y151.646 E2.08869
G1 X137.603 Y151.822 E2.09766
G1 X62.397 Y151.822 E2.52506
G1 X60.061 Y151.425 E2.53853
G1 X57.987 Y150.278 E2.55200
G1 X56.408 Y148.511 E2.56547
G1 X55.502 Y146.320 E2.57894
G1 X55.326 Y144.751 E2.58791
G1 X55.326 Y55.249 E3.09657
G1 X55.723 Y52.912 E3.11003
G1 X56.848 Y50.878 E3.12325
G1 X57.113 Y50.976 F6000.000
G1 X57.136 Y50.936 E3.12351 F1080.000
G1 X58.895 Y49.416 E3.13672
G1 X61.063 Y48.578 E3.14993
G1 X62.397 Y48.445 E3.15755
G1 X137.603 Y48.445 E3.58495
G1 X139.893 Y48.842 E3.59816
G1 X141.916 Y49.987 E3.61137 F1080.000
G1 X143.435 Y51.746 E3.62458
G1 X144.274 Y53.914 E3.63779
G1 X144.406 Y55.249 E3.64541
G1 X144.406 Y144.751 E4.15406
G1 X144.009 Y147.041 E4.16727
G1 X142.864 Y149.064 E4.18048
G1 X141.105 Y150.584 E4.19369
G1 X138.937 Y151.422 E4.20690
G1 X137.603 Y151.555 E4.21453
G1 X62.397 Y151.555 E4.64192
G1 X60.107 Y151.158 E4.65513
G1 X58.084 Y150.013 E4.66834
G1 X56.565 Y148.254 E4.68155
G1 X55.726 Y146.086 E4.69476
G1 X55.594 Y144.751 E4.70239
G1 X55.594 Y55.249 E5.21104
G1 X55.991 Y52.959 E5.22425
G1 X57.091 Y51.015 E5.23694
G1 X57.355 Y51.116 F6000.000
G1 X57.401 Y51.035 E5.23747 F1080.000
G1 X59.151 Y49.577 E5.25041
G1 X62.397 Y48.713 E5.26950
G1 X137.603 Y48.713 E5.69690
G1 X139.846 Y49.110 E5.70985
G1 X141.816 Y50.253 E5.72279 F1080.000
G1 X143.275 Y52.002 E5.73574
G1 X144.138 Y55.249 E5.75483
G1 X144.138 Y144.751 E6.26348
G1 X143.741 Y146.994 E6.27643
G1 X142.599 Y148.965 E6.28937
G1 X140.849 Y150.423 E6.30232
G1 X137.603 Y151.287 E6.32141
G1 X62.397 Y151.287 E6.74881
G1 X60.154 Y150.890 E6.76175
G1 X58.184 Y149.747 E6.77470
G1 X56.725 Y147.998 E6.78764
G1 X55.862 Y144.751 E6.80674
G1 X55.862 Y55.249 E7.31539
G1 X56.259 Y53.006 E7.32833
G1 X57.332 Y51.155 E7.34049
G1 X57.594 Y51.258 F6000.000
G1 X57.667 Y51.137 E7.34130 F1080.000
G1 X59.406 Y49.741 E7.35397
G1 X62.397 Y48.981 E7.37151
G1 X137.603 Y48.981 E7.79891
G1 X139.797 Y49.378 E7.81159
G1 X141.714 Y50.518 E7.82426 F1080.000
G1 X143.110 Y52.257 E7.83694
G1 X143.870 Y55.249 E7.85448
G1 X143.870 Y144.751 E8.36313
G1 X143.474 Y146.946 E8.37580
G1 X142.333 Y148.863 E8.38848
G1 X140.594 Y150.259 E8.40115
G1 X137.603 Y151.019 E8.41870
G1 X62.397 Y151.019 E8.84610
G1 X60.203 Y150.622 E8.85877
G1 X58.286 Y149.482 E8.87145
G1 X56.890 Y147.743 E8.88412
G1 X56.130 Y144.751 E8.90166
G1 X56.130 Y55.249 E9.41031
G1 X56.526 Y53.054 E9.42299
G1 X57.571 Y51.297 E9.43461
G1 E8.43461 F1800.00000
G92 E0
G1 X104.808 Y106.831 F6000.000
G1 E1.00000 F1800.00000
G1 X104.808 Y144.333 E1.21313 F540.000
G1 X102.815 Y144.333 E1.22446
G1 X102.815 Y105.667 E1.44420
G1 X137.185 Y105.667 E1.63953
G1 X137.185 Y144.333 E1.85928
G1 X135.192 Y144.333 E1.87060
G1 X135.192 Y106.831 E2.08373
G1 X104.853 Y106.831 E2.25615
G1 X105.076 Y107.099 F6000.000
G1 X105.076 Y144.601 E2.46928 F378.000
G1 X102.547 Y144.601 E2.48365
G1 X102.547 Y105.399 E2.70644
G1 X137.453 Y105.399 E2.90481
G1 X137.453 Y144.601 E3.12760
G1 X134.924 Y144.601 E3.14197
G1 X134.924 Y107.099 E3.35510
G1 X105.121 Y107.099 E3.52448
G1 X104.776 Y107.099 F6000.000
G1 X133.844 Y105.817 F6000.000
G1 X134.706 Y106.680 E3.53143 F1080.000
G1 X134.327 Y106.680 E3.53359
G1 X133.464 Y105.817 E3.54054
G1 X133.084 Y105.817 E3.54270
G1 X133.947 Y106.680 E3.54965
G1 X133.567 Y106.680 E3.55182
G1 X132.705 Y105.817 E3.55877
G1 X132.325 Y105.817 E3.56093
G1 X133.188 Y106.680 E3.56788
G1 X132.808 Y106.680 E3.57004
G1 X131.945 Y105.817 E3.57699
G1 X131.566 Y105.817 E3.57915
G1 X132.429 Y106.680 E3.58610
G1 X132.049 Y106.680 E3.58827
G1 X131.186 Y105.817 E3.59522
G1 X130.807 Y105.817 E3.59738
G1 X131.669 Y106.680 E3.60433
G1 X131.290 Y106.680 E3.60649
G1 X130.427 Y105.817 E3.61344
G1 X130.047 Y105.817 E3.61560
G1 X130.910 Y106.680 E3.62255
G1 X130.531 Y106.680 E3.62472
G1 X129.668 Y105.817 E3.63167
G1 X129.288 Y105.817 E3.63383
G1 X130.151 Y106.680 E3.64078
G1 X129.771 Y106.680 E3.64294
G1 X128.909 Y105.817 E3.64989
G1 X128.529 Y105.817 E3.65205
G1 X129.392 Y106.680 E3.65900
G1 X129.012 Y106.680 E3.66117
G1 X128.149 Y105.817 E3.66812
G1 X127.770 Y105.817 E3.67028
G1 X128.633 Y106.680 E3.67723
G1 X128.253 Y106.680 E3.67939
G1 X127.390 Y105.817 E3.68634
G1 X127.011 Y105.817 E3.68850
G1 X127.873 Y106.680 E3.69545
G1 X127.494 Y106.680 E3.69762
G1 X126.631 Y105.817 E3.70457
G1 X126.251 Y105.817 E3.70673
G1 X127.114 Y106.680 E3.71368
G1 X126.734 Y106.680 E3.71584
G1 X125.872 Y105.817 E3.72279
G1 X125.492 Y105.817 E3.72495
G1 X126.355 Y106.680 E3.73190
G1 X125.975 Y106.680 E3.73407
G1 X125.112 Y105.817 E3.74102
G1 X124.733 Y105.817 E3.74318
G1 X125.596 Y106.680 E3.75013
G1 X125.216 Y106.680 E3.75229
G1 X124.353 Y105.817 E3.75924
G1 X123.974 Y105.817 E3.76140
G1 X124.836 Y106.680 E3.76835
G1 X124.457 Y106.680 E3.77052
G1 X123.594 Y105.817 E3.77747
G1 X123.214 Y105.817 E3.77963
G1 X124.077 Y106.680 E3.78658
G1 X123.698 Y106.680 E3.78874
G1 X122.835 Y105.817 E3.79569
G1 X122.455 Y105.817 E3.79785
G1 X123.318 Y106.680 E3.80480
G1 X122.938 Y106.680 E3.80697
G1 X122.076 Y105.817 E3.81392
G1 X121.696 Y105.817 E3.81608
G1 X122.559 Y106.680 E3.82303
G1 X122.179 Y106.680 E3.82519
G1 X121.316 Y105.817 E3.83214
G1 X120.937 Y105.817 E3.83430
G1 X121.800 Y106.680 E3.84125
G1 X121.420 Y106.680 E3.84342
G1 X120.557 Y105.817 E3.85037
G1 X120.178 Y105.817 E3.85253
G1 X121.040 Y106.680 E3.85948
G1 X120.661 Y106.680 E3.86164
G1 X119.798 Y105.817 E3.86859
G1 X119.418 Y105.817 E3.87075
G1 X120.281 Y106.680 E3.87770
G1 X119.901 Y106.680 E3.87986
G1 X119.039 Y105.817 E3.88681
G1 X118.659 Y105.817 E3.88898
G1 X119.522 Y106.680 E3.89593
G1 X119.142 Y106.680 E3.89809
G1 X118.279 Y105.817 E3.90504
G1 X117.900 Y105.817 E3.90720
G1 X118.763 Y106.680 E3.91415
G1 X118.383 Y106.680 E3.91631
G1 X117.520 Y105.817 E3.92326
G1 X117.141 Y105.817 E3.92543
G1 X118.003 Y106.680 E3.93238
G1 X117.624 Y106.680 E3.93454
G1 X116.761 Y105.817 E3.94149
G1 X116.381 Y105.817 E3.94365
G1 X117.244 Y106.680 E3.95060
G1 X116.865 Y106.680 E3.95276
G1 X116.002 Y105.817 E3.95971
G1 X115.622 Y105.817 E3.96188
G1 X116.485 Y106.680 E3.96883
G1 X116.105 Y106.680 E3.97099
G1 X115.243 Y105.817 E3.97794
G1 X114.863 Y105.817 E3.98010
G1 X115.726 Y106.680 E3.98705
G1 X115.346 Y106.680 E3.98921
G1 X114.483 Y105.817 E3.99616
G1 X114.104 Y105.817 E3.99833
G1 X114.966 Y106.680 E4.00528
G1 X114.587 Y106.680 E4.00744
G1 X113.724 Y105.817 E4.01439
G1 X113.345 Y105.817 E4.01655
G1 X114.207 Y106.680 E4.02350
G1 X113.828 Y106.680 E4.02566
G1 X112.965 Y105.817 E4.03261
G1 X112.585 Y105.817 E4.03478
G1 X113.448 Y106.680 E4.04173
G1 X113.068 Y106.680 E4.04389
G1 X112.206 Y105.817 E4.05084
G1 X111.826 Y105.817 E4.05300
G1 X112.689 Y106.680 E4.05995
G1 X112.309 Y106.680 E4.06211
G1 X111.446 Y105.817 E4.06906
G1 X111.067 Y105.817 E4.07123
G1 X111.930 Y106.680 E4.07818
G1 X111.550 Y106.680 E4.08034
G1 X110.687 Y105.817 E4.08729
G1 X110.308 Y105.817 E4.08945
G1 X111.170 Y106.680 E4.09640
G1 X110.791 Y106.680 E4.09856
G1 X109.928 Y105.817 E4.10551
G1 X109.548 Y105.817 E4.10768
G1 X110.411 Y106.680 E4.11463
G1 X110.032 Y106.680 E4.11679
G1 X109.169 Y105.817 E4.12374
G1 X108.789 Y105.817 E4.12590
G1 X109.652 Y106.680 E4.13285
G1 X109.272 Y106.680 E4.13501
G1 X108.410 Y105.817 E4.14196
G1 X108.030 Y105.817 E4.14413
G1 X108.893 Y106.680 E4.15108
G1 X108.513 Y106.680 E4.15324
G1 X107.650 Y105.817 E4.16019
G1 X107.271 Y105.817 E4.16235
G1 X108.133 Y106.680 E4.16930
G1 X107.754 Y106.680 E4.17146
G1 X106.891 Y105.817 E4.17841
G1 X106.511 Y105.817 E4.18058
G1 X107.374 Y106.680 E4.18753
G1 X106.995 Y106.680 E4.18969
G1 X106.132 Y105.817 E4.19664
G1 X105.752 Y105.817 E4.19880
G1 X106.615 Y106.680 E4.20575
G1 X106.235 Y106.680 E4.20791
G1 X105.373 Y105.817 E4.21486
G1 X104.993 Y105.817 E4.21703
G1 X105.856 Y106.680 E4.22398
G1 X105.476 Y106.680 E4.22614
G1 X104.613 Y105.817 E4.23309
G1 X104.234 Y105.817 E4.23525
G1 X105.097 Y106.680 E4.24220
G1 X104.717 Y106.680 E4.24436
G1 X103.854 Y105.817 E4.25131
G1 X103.475 Y105.817 E4.25348
G1 X104.657 Y107.000 E4.26300
G1 X104.657 Y107.380 E4.26516
G1 X103.095 Y105.817 E4.27775
G1 X102.966 Y106.068 E4.27935
G1 X104.657 Y107.759 E4.29298
G1 X104.657 Y108.139 E4.29514
G1 X102.966 Y106.448 E4.30876
G1 X102.966 Y106.827 E4.31093
G1 X104.657 Y108.518 E4.32455
G1 X104.657 Y108.898 E4.32671
G1 X102.966 Y107.207 E4.34033
G1 X102.966 Y107.586 E4.34250
G1 X104.657 Y109.278 E4.35612
G1 X104.657 Y109.657 E4.35828
G1 X102.966 Y107.966 E4.37191
G1 X102.966 Y108.346 E4.37407
G1 X104.657 Y110.037 E4.38769
G1 X104.657 Y110.416 E4.38985
G1 X102.966 Y108.725 E4.40348
G1 X102.966 Y109.105 E4.40564
G1 X104.657 Y110.796 E4.41926
G1 X104.657 Y111.176 E4.42143
G1 X102.966 Y109.484 E4.43505
G1 X102.966 Y109.864 E4.43721
G1 X104.657 Y111.555 E4.45084
G1 X104.657 Y111.935 E4.45300
G1 X102.966 Y110.244 E4.46662
G1 X102.966 Y110.623 E4.46878
G1 X104.657 Y112.315 E4.48241
G1 X104.657 Y112.694 E4.48457
G1 X102.966 Y111.003 E4.49819
G1 X102.966 Y111.383 E4.50036
G1 X104.657 Y113.074 E4.51398
G1 X104.657 Y113.453 E4.51614
G1 X102.966 Y111.762 E4.52977
G1 X102.966 Y112.142 E4.53193
G1 X104.657 Y113.833 E4.54555
G1 X104.657 Y114.213 E4.54771
G1 X102.966 Y112.521 E4.56134
G1 X102.966 Y112.901 E4.56350
G1 X104.657 Y114.592 E4.57712
G1 X104.657 Y114.972 E4.57929
G1 X102.966 Y113.281 E4.59291
G1 X102.966 Y113.660 E4.59507
G1 X104.657 Y115.351 E4.60870
G1 X104.657 Y115.731 E4.61086
G1 X102.966 Y114.040 E4.62448
G1 X102.966 Y114.419 E4.62664
G1 X104.657 Y116.111 E4.64027
G1 X104.657 Y116.490 E4.64243
G1 X102.966 Y114.799 E4.65605
G1 X102.966 Y115.179 E4.65822
G1 X104.657 Y116.870 E4.67184
G1 X104.657 Y117.249 E4.67400
G1 X102.966 Y115.558 E4.68763
G1 X102.966 Y115.938 E4.68979
G1 X104.657 Y117.629 E4.70341
G1 X104.657 Y118.009 E4.70557
G1 X102.966 Y116.317 E4.71920
G1 X102.966 Y116.697 E4.72136
G1 X104.657 Y118.388 E4.73498
G1 X104.657 Y118.768 E4.73715
G1 X102.966 Y117.077 E4.75077
G1 X102.966 Y117.456 E4.75293
G1 X104.657 Y119.148 E4.76655
G1 X104.657 Y119.527 E4.76872
G1 X102.966 Y117.836 E4.78234
G1 X102.966 Y118.216 E4.78450
G1 X104.657 Y119.907 E4.79813
G1 X104.657 Y120.286 E4.80029
G1 X102.966 Y118.595 E4.81391
G1 X102.966 Y118.975 E4.81607
G1 X104.657 Y120.666 E4.82970
G1 X104.657 Y121.046 E4.83186
G1 X102.966 Y119.354 E4.84548
G1 X102.966 Y119.734 E4.84765
G1 X104.657 Y121.425 E4.86127
G1 X104.657 Y121.805 E4.86343
G1 X102.966 Y120.114 E4.87706
G1 X102.966 Y120.493 E4.87922
G1 X104.657 Y122.184 E4.89284
G1 X104.657 Y122.564 E4.89500
G1 X102.966 Y120.873 E4.90863
G1 X102.966 Y121.252 E4.91079
G1 X104.657 Y122.944 E4.92441
G1 X104.657 Y123.323 E4.92658
G1 X102.966 Y121.632 E4.94020
G1 X102.966 Y122.012 E4.94236
G1 X104.657 Y123.703 E4.95599
G1 X104.657 Y124.082 E4.95815
G1 X102.966 Y122.391 E4.97177
G1 X102.966 Y122.771 E4.97393
G1 X104.657 Y124.462 E4.98756
G1 X104.657 Y124.842 E4.98972
G1 X102.966 Y123.151 E5.00334
G1 X102.966 Y123.530 E5.00551
G1 X104.657 Y125.221 E5.01913
G1 X104.657 Y125.601 E5.02129
G1 X102.966 Y123.910 E5.03492
G1 X102.966 Y124.289 E5.03708
G1 X104.657 Y125.981 E5.05070
G1 X104.657 Y126.360 E5.05286
G1 X102.966 Y124.669 E5.06649
G1 X102.966 Y125.049 E5.06865
G1 X104.657 Y126.740 E5.08227
G1 X104.657 Y127.119 E5.08444
G1 X102.966 Y125.428 E5.09806
G1 X102.966 Y125.808 E5.10022
G1 X104.657 Y127.499 E5.11384
G1 X104.657 Y127.879 E5.11601
G1 X102.966 Y126.187 E5.12963
G1 X102.966 Y126.567 E5.13179
G1 X104.657 Y128.258 E5.14542
G1 X104.657 Y128.638 E5.14758
G1 X102.966 Y126.947 E5.16120
G1 X102.966 Y127.326 E5.16336
G1 X104.657 Y129.017 E5.17699
G1 X104.657 Y129.397 E5.17915
G1 X102.966 Y127.706 E5.19277
G1 X102.966 Y128.085 E5.19494
G1 X104.657 Y129.777 E5.20856
G1 X104.657 Y130.156 E5.21072
G1 X102.966 Y128.465 E5.22435
G1 X102.966 Y128.845 E5.22651
G1 X104.657 Y130.536 E5.24013
G1 X104.657 Y130.915 E5.24229
G1 X102.966 Y129.224 E5.25592
G1 X102.966 Y129.604 E5.25808
G1 X104.657 Y131.295 E5.27170
G1 X104.657 Y131.675 E5.27387
G1 X102.966 Y129.984 E5.28749
G1 X102.966 Y130.363 E5.28965
G1 X104.657 Y132.054 E5.30328
G1 X104.657 Y132.434 E5.30544
G1 X102.966 Y130.743 E5.31906
G1 X102.966 Y131.122 E5.32122
G1 X104.657 Y132.814 E5.33485
G1 X104.657 Y133.193 E5.33701
G1 X102.966 Y131.502 E5.35063
G1 X102.966 Y131.882 E5.35280
G1 X104.657 Y133.573 E5.36642
G1 X104.657 Y133.952 E5.36858
G1 X102.966 Y132.261 E5.38221
G1 X102.966 Y132.641 E5.38437
G1 X104.657 Y134.332 E5.39799
G1 X104.657 Y134.712 E5.40015
G1 X102.966 Y133.020 E5.41378
G1 X102.966 Y133.400 E5.41594
G1 X104.657 Y135.091 E5.42956
G1 X104.657 Y135.471 E5.43173
G1 X102.966 Y133.780 E5.44535
G1 X102.966 Y134.159 E5.44751
G1 X104.657 Y135.850 E5.46114
G1 X104.657 Y136.230 E5.46330
G1 X102.966 Y134.539 E5.47692
G1 X102.966 Y134.918 E5.47908
G1 X104.657 Y136.610 E5.49271
G1 X104.657 Y136.989 E5.49487
G1 X102.966 Y135.298 E5.50849
G1 X102.966 Y135.678 E5.51066
G1 X104.657 Y137.369 E5.52428
G1 X104.657 Y137.749 E5.52644
G1 X102.966 Y136.057 E5.54006
G1 X102.966 Y136.437 E5.54223
G1 X104.657 Y138.128 E5.55585
G1 X104.657 Y138.508 E5.55801
G1 X102.966 Y136.817 E5.57164
G1 X102.966 Y137.196 E5.57380
G1 X104.657 Y138.887 E5.58742
G1 X104.657 Y139.267 E5.58958
G1 X102.966 Y137.576 E5.60321
G1 X102.966 Y137.955 E5.60537
G1 X104.657 Y139.647 E5.61899
G1 X104.657 Y140.026 E5.62116
G1 X102.966 Y138.335 E5.63478
G1 X102.966 Y138.715 E5.63694
G1 X104.657 Y140.406 E5.65057
G1 X104.657 Y140.785 E5.65273
G1 X102.966 Y139.094 E5.66635
G1 X102.966 Y139.474 E5.66851
G1 X104.657 Y141.165 E5.68214
G1 X104.657 Y141.545 E5.68430
G1 X102.966 Y139.853 E5.69792
G1 X102.966 Y140.233 E5.70009
G1 X104.657 Y141.924 E5.71371
G1 X104.657 Y142.304 E5.71587
G1 X102.966 Y140.613 E5.72950
G1 X102.966 Y140.992 E5.73166
G1 X104.657 Y142.683 E5.74528
G1 X104.657 Y143.063 E5.74744
G1 X102.966 Y141.372 E5.76107
G1 X102.966 Y141.751 E5.76323
G1 X104.657 Y143.443 E5.77685
G1 X104.657 Y143.822 F6000.000
G1 X102.966 Y142.131 E5.79048 F1080.000
G1 X102.966 Y142.511 E5.79264
G1 X104.638 Y144.183 E5.80611
G1 X104.258 Y144.183 E5.80827
G1 X102.966 Y142.890 E5.81868
G1 X102.966 Y143.270 E5.82084
G1 X103.879 Y144.183 E5.82819
G1 X103.499 Y144.183 E5.83036
G1 X102.966 Y143.650 E5.83465
G1 E4.83465 F1800.00000
G92 E0
G1 X135.343 Y143.759 F6000.000
G1 E1.00000 F1800.00000
G1 X135.766 Y144.183 E1.00341 F1080.000
G1 X136.146 Y144.183 E1.00557
G1 X135.343 Y143.380 E1.01204
G1 X135.343 Y143.000 E1.01420
G1 X136.525 Y144.183 E1.02372
G1 X136.905 Y144.183 E1.02589
G1 X135.343 Y142.621 E1.03847
G1 X135.343 Y142.241 E1.04063
G1 X137.034 Y143.932 E1.05425
G1 X137.034 Y143.553 E1.05642
G1 X135.343 Y141.861 E1.07004
G1 X135.343 Y141.482 E1.07220
G1 X137.034 Y143.173 E1.08583
G1 X137.034 Y142.793 E1.08799
G1 X135.343 Y141.102 E1.10161
G1 X135.343 Y140.723 E1.10377
G1 X137.034 Y142.414 E1.11740
G1 X137.034 Y142.034 E1.11956
G1 X135.343 Y140.343 E1.13318
G1 X135.343 Y139.963 E1.13535
G1 X137.034 Y141.655 E1.14897
G1 X137.034 Y141.275 E1.15113
G1 X135.343 Y139.584 E1.16476
G1 X135.343 Y139.204 E1.16692
G1 X137.034 Y140.895 E1.18054
G1 X137.034 Y140.516 E1.18270
G1 X135.343 Y138.825 E1.19633
G1 X135.343 Y138.445 E1.19849
G1 X137.034 Y140.136 E1.21211
G1 X137.034 Y139.756 E1.21428
